packages/bezier-icons/icons/heading-1.svg

<svg width="24" height="24" viewBox="0 0 24 24" fill="none" xmlns="http://www.w3.org/2000/svg">
<path fill-rule="evenodd" clip-rule="evenodd" d="M4.5 5C4.22386 5 4 5.22386 4 5.5V17.5C4 17.7761 4.22386 18 4.5 18H6C6.27614 18 6.5 17.7761 6.5 17.5V13H11.5V17.5C11.5 17.7761 11.7239 18 12 18H13.5C13.7761 18 14 17.7761 14 17.5V5.5C14 5.22386 13.7761 5 13.5 5H12C11.7239 5 11.5 5.22386 11.5 5.5V10.5H6.5V5.5C6.5 5.22386 6.27614 5 6 5H4.5ZM20 12.4671C20 11.4688 18.8873 10.8733 18.0566 11.4271L15.8613 12.8906C15.6316 13.0438 15.5695 13.3542 15.7227 13.584L16.2774 14.416C16.4305 14.6458 16.741 14.7079 16.9707 14.5547L18 13.8685V20.5C18 20.7761 18.2239 21 18.5 21H19.5C19.7762 21 20 20.7761 20 20.5V12.4671Z" fill="#313234"/>
</svg>

<svg xmlns="http://www.w3.org/2000/svg" width="24" height="24" fill="none" viewBox="0 0 24 24"><path fill="#313234" fill-rule="evenodd" d="M4.5 5a.5.5 0 0 0-.5.5v12a.5.5 0 0 0 .5.5H6a.5.5 0 0 0 .5-.5V13h5v4.5a.5.5 0 0 0 .5.5h1.5a.5.5 0 0 0 .5-.5v-12a.5.5 0 0 0-.5-.5H12a.5.5 0 0 0-.5.5v5h-5v-5A.5.5 0 0 0 6 5zM20 12.467a1.25 1.25 0 0 0-1.943-1.04l-2.196 1.464a.5.5 0 0 0-.138.693l.554.832a.5.5 0 0 0 .694.139L18 13.868V20.5a.5.5 0 0 0 .5.5h1a.5.5 0 0 0 .5-.5z" clip-rule="evenodd"/></svg>
